X:1
T:Symphony No. 5 in C Minor
T:Second Movement
T:Ludwig van Beethoven
T:Adp. from arrangements by Ernst Pauer and Franz Liszt
%%score { ( 1 3 5 ) | ( 2 4 ) }
L:1/8
Q:1/4=44
M:3/8
K:Ab
V:1 bass nm="Piano"
V:3 bass 
V:5 bass 
V:2 bass 
V:4 bass 
V:1
"^Andante con moto"!p! E,/>A,/ | CC/>B,/A,/>C/ | F,-F,/>=A,/B,/>C/ | D/>C/B,/>D/G,/>B,/ | %4
 =E,/>G,/C- C/>B,/ | =A,/>F,/B,>D | G,/>E,/ _A,!mp!A,/>!mf!C/ |!f! E3 | %8
 C z[K:treble]!p! [EA]/>[Cc]/ | [EGe]3 |!p! [EAc] z [ea]/>[ec']/ | e'3 |!p! a3 | e3 | g2 (3g/a/b/ | %15
 a z!p! (3A/c/e/ | [Ee]/[Dd]/ [Cc]>[Cc] | [Cc]/!mp![B,B]/ [A,A]>!mf![A,A] | G2 (3G/A/B/ | %19
 [CEA] z (3g/a/b/ | a z (3[DG]/[CA]/[DB]/ | [CA]/ z/ [Acea]/ z/!pp! [Acea]/ z/ | %22
 [Acea] z!p! E/>G/ | [EA][EA][GB] | [Ac]2 [EA]/>[GB]/ | [Ac][Ac][Bd] | [ce]2 e/>!pp!f/ | %27
 _g2 e/>f/ | _g2!p! [ee']/>[ff']/ |!ff! [^fc'e'^f']3 | %30
!ff! [gc'=e'g']/>.[=ec'e']/ .[cgc'].[=dg=b=d'] | .[c=egc'] z!f! =E/>G/ | [=Ec][Ec][G=d] | %33
 [c=e]2 [=Ec]/>[G=d]/ | [c=e][ce][=df] | [=eg]2 [=Ece]/>[F=df]/ | [G=eg]2 [=Ece]/>[F=df]/ | %37
 [G=eg]3- | [Geg]2!pp! _B/>c/ | [B_d]2 B/>c/ | [Bd]2 B/>c/ | [Bd]3 | [A-_c-=d]3 | [Ace]3 | %44
 [A=Bf]3 | [_B=eg]3 | [Aea]3 | [FAdf]3 | [GBe] z z | e2[K:bass] E,/A,/ | C/B,/A,/G,/A,/C/ | %51
 F,/=A,/B,/A,/B,/C/ | D/C/B,/D/G,/B,/ | =E,/G,/C/G,/C/B,/ | =A,/F,/B,/C/D/B,/ | %55
 G,/!mp!_E,/_A,/G,/!mf!A,/C/ |[K:treble] =D/E/F/E/D/E/ | C/ G/!mp!{/B}A/G/!mf!A/c/ | %58
 =d/e/f/e/d/e/ | c/!mp! g/{/b}a/g/!mf!a/c'/ |!f! =d'/!>(!e'/!mf!f'/e'/!mp!d'/!>)!e'/ |!p! _d' c'2 | %62
 b a2 | g2 (3g/a/b/ | [cea] z/ A/c/e/ | [Ee]/[Dd]/ [Cc]>[Cc] | [Cc]/!mp![B,B]/ [A,A]>!mf![A,A] | %67
 G2 (3G/A/B/ | A z!<(! (3g/!mp!a/!<)!!>(!b/!>)! |!p! a z (3G/A/B/ | %70
 [CA]/ z/ [Acea]/ z/!pp! [Acea]/ z/ | [Acea] z!p! E/>G/ | [EA][EA][GB] | [Ac]2 [EA]/>[GB]/ | %74
 [Ac][Ac][Bd] | e2!pp! e/>f/ | [e_g]2!p! e/>f/ | _g2 [ee']/>[ff']/ |!ff! [^fc'e'^f']3 | %79
 [gc'=e'g']/>.[=ec'e']/ .[cgc'].[=dg=b=d'] | .[c=egc'] z!ff! =E/>G/ | [C=Ec][Ec][G=d] | %82
 [=Ec=e]2 [Ec]/>[G=d]/ | [c=e][ce][=df] | [G=eg]2 [=Ec=e]/>[F=df]/ | [G=eg]2 [=Ece]/>[F=df]/ | %86
 [G=eg]3- | [Geg]2!pp! B/>c/ | [B_d]2 B/>c/ | [Bd]2 B/>c/ | [Bd]3 | [A_c=d]3 | [EA_ce]3 | %93
 [FA_cf]3 |!mp! [GB_fg]3 | [Acea]3 | [FAdf]3 | [EGBe] z/ E/e/e/ | [ee']2[K:bass] E,/4G,/4A,/4B,/4 | %99
 C/4B,/4A,/4G,/4 A,/4B,/4A,/4G,/4 A,/4B,/4C/4A,/4 | %100
 F,/4G,/4F,/4=E,/4 F,/4=A,/4B,/4A,/4 B,/4C/4D/4C/4 | D/4C/4D/4C/4 B,/4D/4_A,/4D/4 G,/4D/4F,/4D/4 | %102
 =E,/4G,/4=A,/4=B,/4 C/4G,/4A,/4B,/4 C/4G,/4C/4_B,/4 | %103
 =A,/4C/4F,/4C/4 B,/4D/4F,/4D/4 B,/4D/4_A,/4D/4 | G,/4B,/4E,/4B,/4 A,/4C/4E,/4C/4 A,/4C/4E,/4C/4 | %105
[K:treble] G,/4E/4B,/4E/4 G,/4E/4B,/4E/4 G,/4E/4B,/4E/4 | %106
 [A,C]/4 E/4D/4C/4 D/4E/4F/4G/4{/B} A/4G/4A/4B/4 | E3 | F F2 | F3 | =E2 =E | _E D2 | D C2 | x3 | %114
 [Ac]/!mp! [ceac']/[ceac']/[ceac']/[ceac']/[ceac']/ | %115
 [ceac']/[ceac']/[ceac']/[ceac']/[ceac']/[ceac']/ | [ce=ac']/[ceac']/ [dfb]/[dfb]/[dfb]/[dfb]/ | %117
 [Bdfb]/[Bdfb]/[Bdfb]/[Bdfb]/[=B=dg=b]/[Bdgb]/ | %118
 [c=egc']/[cegc']/[cegc']/[cegc']/[cegc']/[cegc']/ | [_efc']/[efc']/[dfc']/[dfc']/[dfb]/[dfb]/ | %120
 [dfb]/[deb]/[ceb]/[ceb]/[cea]/[cea]/ | %121
!ff! [Beg]- [Beg]/4!mp!!<(! E/4F/4G/4!mf! [A,A]/4[B,B]/4!f![Cc]/4[=D=d]/4!<)! | %122
 [Ee]-[Ee]/[Ff]/4[Gg]/4 [Aa]/4[Bb]/4[cc']/4[=d=d']/4 | %123
[Q:1/4=22] !fermata![ee']2[Q:1/4=44] .[G,B,D] | .[G,B,D] z .[G,B,D] | .[G,B,D] z .[G,B,D] | %126
 .[G,B,D] z .[G,B,D] | .[G,B,D] z E/G/ | .BB/A/G/B/ | d2 [CE] | A, z z | [A,C]2 A/=d/ | %132
 [Af]f/e/!p![A=d]/[df]/ | [fa][fa]/[eg]/[=df]/[fa]/ | [ac'][ac']/[gb]/[fa]/[eg]/ | %135
 [=df][df]/[eg]/[fa]/[gb]/ |!<(! [ac']/[gb]/[fa]/!mp![eg]/[=df]/!mf![eg]/!<)! | %137
!>(! [fa]/[gb]/[ac']/[ac']/!p![gb]/!>)![fa]/ |!p! g3- | g/a/[gb]/[ac']/[bd']/[c'e']/ | %140
!<(! [d'f'][d'f']/[c'e']/[bd']/!mp![ac']/ | [gb]/[ac']/[bd']/[c'e']/[d'f']/[c'e']/ | %142
!mf! [bd']/[ac']/[gb]/!<)!.[d'f']/.[c'e']/.[bd']/ | .[ac']/.[c'e']/.[bd']/.[ac']/.[gb]/ .[Bd]/ | %144
 .[Ac]/.[GB]/.[FA]/ .[ac']/.[gb]/.[fa]/ | [fg]/[fg]/[fg]/!mp![fg]/[fg]/[fg]/ | %146
 [fg]/[fg]/!mf![fg]/[fg]/ z | z/ G/G/G/ [=Ec=e]/>[Gg]/ | [c=ec'][cegc'][=dg=b=d'] | [=egc'=e']3- | %150
!fff! [egc'e']2 [c=egc']/>[=dg=b=d']/ | [=egc'=e'][ec'e'][fc'=d'f'] | [gc'=e'g']3- | %153
 [gc'e'g']2!ff! [=ec'=e']/>[f=d'f']/ | [g=e'g']2!ff! [=ec'e']/>[f=d'f']/ | [g=e'g']3- | [ge'g']3 | %157
 [G,=EG] z C/>F/ | .[FA] z _E/>G/ | (3.[B,GB]/.E/.G/(3.B/.E/.G/(3.B/.E/.G/ | %160
 (3.B/.E/.G/(3.B/.E/.G/(3.B/.E/.G/ |!pp! B/4G/4E/4G/4 B/4G/4E/4G/4 B/4G/4E/4G/4 | B z2 | %163
 B/4G/4E/4G/4 B/4G/4E/4G/4 B/4G/4E/4G/4 | B/4G/4E/4G/4 B/4G/4E/4G/4 B/4G/4E/4G/4 | %165
 B/4G/4E/4G/4 B/4G/4E/4G/4!pp! _c/4A/4E/4A/4 | _c/4A/4E/4A/4 c/4A/4E/4A/4 c/4A/4E/4A/4 | %167
 B/4G/4E/4G/4 B/4G/4E/4G/4 B/4G/4E/4G/4 |!pp! _c/4A/4E/4A/4 c/4A/4E/4A/4 c/4A/4E/4A/4 | %169
 _d/4B/4_G/4B/4 d/4B/4G/4B/4 d/4B/4G/4B/4 | e/4_c/4_G/4c/4 e/4c/4G/4c/4 e/4c/4G/4c/4 | %171
 _d/4B/4_G/4B/4 d/4B/4G/4B/4 d/4B/4G/4B/4 | _c/4A/4E/4A/4 c/4A/4E/4A/4 c/4A/4E/4A/4 | %173
 B/4G/4E/4G/4 B/4!p!E/4_c/4E/4 A/4E/4c/4E/4 | B/4!mp!G/4E/4G/4 B/4E/4!mf!_c/4E/4 A/4E/4!f!c/4E/4 | %175
 [B,GB]/ [EGe]!p!=d/e/=e/ | f/^f/g/a/=a/b/ | c'/d'/e'/f'/=a/b/ | c'/d'/ c/d/e/f/ | =A/B/c/d/ z | %180
 z z[K:bass]!p! z/4 E,/4F,/4G,/4 |[K:treble] A,/4B,/4C/4D/4E-E/4!mp!E/4F/4G/4 | %182
 A/4B/4c/4d/4e-e/4!mf!e/4f/4g/4 | z e'>d' | [cc'] [cc']/>[Bb]/[Aa]/>[cc']/ | %185
 [Ff]-[Ff]/>[=A=a]/[Bb]/>[cc']/ | [dd']/>[cc']/[Bb]/>[dd']/[Gg]/>[Bb]/ | %187
 [=E=e]/>[Gg]/ [cc']-[cc']/>[Bb]/ | [=A=a]/>[Ff]/ [Bb]>[dd'] | [Gg]/>[Ee]/ [Aa][Aa]/>[cc']/ | %190
!fff! [egbe']3 |!ff! [cac'] D/4E/4F/4G/4 A/4B/4c/4d/4 |!ff! [GBe]3 | %193
 [cac']/4 [A,A]/4[B,B]/4[Cc]/4 [Dd]/4[Ee]/4[Ff]/4[Gg]/4!ff! [Aa]/>[cc']/ |!fff!!>(! e'3!>)! | %195
!p! a3 | e3 | g2 (3g/a/b/ | a z/ A/c/e/ | [Ee]/[Dd]/ [Cc]>[Cc] | [Cc]/[B,B]/ [A,A]>[A,A] | %201
 G2 (3G/A/B/ | [CEA] z (3[dg]/[ca]/[db]/ | [ca] z (3[DG]/[CA]/[DB]/ | %204
!p![Q:1/4=54]"^Piú moto" [CA] z!p! C/E/ | _G!p!G/F/E/G/ | F2!p! D/E/ | _F!p!F/E/D/F/ | %208
 E2 z/ [CEA]/ |!pp! z!p!{/ef} _g z | z!p!{/de} f z | z!p!{/de} _f z | [CA] z3/4!p! A,/<C/!mp!E/4 | %213
 [A,A]!mf![Cc]!f![EGBe] | [EAc] z3/4 A,/<C/!mp!E/4 | (3[A,A]/!mf![Cc]/[Ee]/[Aa]!f![Begb] | %216
 [ceac'] (3z/!mp! A,/C/(3[A,CE]/[CEA]/!f![EAc]/ |!ff! (3[Ace]/[cea]/[eac']/ e'2-[Q:1/4=44] | %218
!mf! e'3 |!p! a3 | e3 | g2 (3g/a/b/ | a z/!p! A/c/e/ | [Ee]/!mp![Dd]/ [Cc]>!mf![Cc] | %224
!f! [Geg]/[Fdf]/ [Ece]>[Ece] | e/d/ c3/2 c/ | [DFB] z z |!pp! [G,DE] z z | [A,CA]2 E/A/ | %229
 [Ac][Ac]/[EB]/ [CA]/>[CAc]/ | [Ece]2 [CA]/[Ac]/ | [Ece][Ece]/[DBd]/ [CAc]/>[Ece]/ | [Aca]2 c/e/ | %233
 [ca]2 C/>E/ | A3 | [Acea]3 |!p! [Acea][Acea][Acea] | [Acea][Acea]!mp![Acea] | %238
!f! (3.[Acea]/.[Acea]/.[Acea]/(3.[Acea]/.[Acea]/.[Acea]/(3.[Acea]/.[Acea]/.[Acea]/ | %239
 (3.[Acea]/.[Acea]/.[Acea]/(3.[Acea]/.[Acea]/.[Acea]/(3.[Acea]/ .C/.E/ | %240
 (3A/C/E/(3A/[Cc]/[Ee]/(3[Aa]/[cc']/[ee']/ | [aa'] z [Aa]/>[cc']/ |!fff! [gb] z z | %243
!ff! .[cac'] z!p! .[egbe'] | .[cac'] z [Aa]/>[cc']/ |!ff! g z z | [Aca] z z |] %247
V:2
 z | .A,,,2 z | .D,,2 z | .B,,,.G,,,.B,,, | .C,,2 z | .F,,.B,,, z | .E,,.A,,, z | .[E,,,E,,] z2 | %8
!p! .[A,,,A,,] z [C,E,]/>A,,/ |!f! [E,,B,,E,]3 | [A,,E,] z[K:treble] [Ac]/>[Ac]/ |!f! [EGB]3 | %12
 [FA]3 | B A2 | BBB/>G/ | [A,EA] z[K:bass] (3A,/C/[I:staff -1]E/ | %16
[I:staff +1] !arpeggio![F,,A,,F,]3 |"^cresc." [C,,E,,C,]3 |!f! x x B,/>G,/ | %19
!p! A, z[K:treble] B/>A/ | [A,EA]!f! z[K:bass][I:staff -1] (3B,/[I:staff +1]A,/G,/ | %21
 A,/ z/!p! [A,,,E,,A,,]/ z/ [A,,,E,,A,,]/ z/ |!ped! [A,,,A,,] z!ped-up! z | %23
 (3.C,/.A,/.E,/(3.C,/.A,/.E,/(3.E,/.B,/.G,/ | %24
 (3.E,/[I:staff -1].C/[I:staff +1].A,/(3.E,/.A,/.C,/(3.E,/.A,/.B,/ | %25
 (3.E,/[I:staff -1].C/[I:staff +1].A,/(3.E,/[I:staff -1].C/[I:staff +1].A,/(3.E,/[I:staff -1].D/[I:staff +1].B,/ | %26
 (3E,/[I:staff -1]E/[I:staff +1]C/(3A,/C/E/ A | z =A z | z =A2 | %29
!ped! [_A,CE^F]!f! A,,,/8A,,/8A,,,/8A,,/8A,,,/8A,,/8A,,,/8A,,/8A,,,/8A,,/8A,,,/8A,,/8A,,,/8A,,/8A,,,/8A,,/8!ped-up! | %30
!ped! .[G,,C,=E,G,].[G,,C,E,G,]!ped-up!.[G,,F,G,] |!ped! .[C,=E,G,C].[C,,,C,,]!ped-up! z | %32
!ped! (3=E,/C/G,/(3E,/C/!ped-up!G,/(3G,/[I:staff -1]=D/[I:staff +1]=B,/ | %33
!ped! (3G,/[I:staff -1]=E/[I:staff +1]C/(3G,/=E,/C,/ [C,G,]/>[C,G,]/!ped-up! | %34
!ped! (3G,/[I:staff -1]=E/[I:staff +1]C/(3G,/[I:staff -1]E/!ped-up![I:staff +1]C/!ped!(3G,/[I:staff -1]F/[I:staff +1]=D/!ped-up! | %35
!ped! (3G,/[I:staff -1]G/[I:staff +1]=E/(3C/G,/=E,/!ped-up! [C,,C,]/>[C,,C,]/ | %36
!ff!!ped! (3[C,,C,]/!f! G/=E/(3C/G,/=E,/!ped-up! [C,,C,]/>[C,,C,]/ |!ff! [C,,C,] z z | z3 | %39
!p! z =E,,2 | z =E,,2- | E,,3 |!pp! [=E,,=E,]3 | [_E,,_E,]3 | [=D,,=D,]3 |!<(! [_D,,_D,]3 | %46
!p! [C,,C,]3 |!mp! [D,,D,]3!<)! |!f!!ped! E,,E,E | z z!ped-up!!p! [A,,,A,,] | %50
"^dolce" .[A,,,A,,]2 z | .[D,,D,]2 z | .[B,,,B,,].[G,,,G,,].[B,,,B,,] | [C,,G,,C,] z C, | %54
 [F,,C,][B,,D,] z | [E,,B,,][A,,C,] z |!mp!!f! [E,G,][E,G,][E,G,] | %57
!p! [A,,E,]"^cresc." z/ [C,E,]/[C,E,]/A,,/ |!f! [E,,B,,E,]3 | %59
!p! [A,,E,][K:treble] z/!mp!"^cresc." [Ace]/[Ace]/[Ace]/ | e2 z | _d c2 | B A2 | B2 B/>G/ | %64
 [A,EA] z/[K:bass] A,/C/[I:staff -1]E/ |[I:staff +1] !arpeggio![F,,F,A,]3 | %66
"^cresc." !arpeggio![C,,C,E,]3 | [E,,E,][E,,E,][E,,E,] |!p! A, z[K:treble] B/>G/ | %69
 [A,EA] z[K:bass]!f! (3B,/A,/G,/ | [A,,A,]/ z/!p! [A,,,E,,A,,]/ z/ [A,,,E,,A,,]/ z/ | %71
 [A,,,A,,] z"^dolce" z | %72
 C,/4E,/4A,/4E,/4 C,/4E,/4A,/4E,/4 E,/4G,/4[I:staff -1]B,/4[I:staff +1]G,/4 | %73
!ped! E,/4A,/4[I:staff -1]C/4[I:staff +1]A,/4 E,/4A,/4E,/4C,/4!ped-up! C,/4A,/4E,/4B,/4 | %74
!ped! E,/4A,/4[I:staff -1]C/4[I:staff +1]A,/4 E,/4A,/4[I:staff -1]C/4[I:staff +1]A,/4!ped-up! E,/4B,/4[I:staff -1]D/4[I:staff +1]B,/4 | %75
!ped! E,/4C/4[I:staff -1]E/4[I:staff +1]C/4 A,/4C/4E/4G/4!ped-up! A | z/4 =A/4A/4A/4 A/A/A/ z/ | %77
 z/4 =A/4A/4A/4 A/A/ E/>F/ | %78
!ped! [_A,CE^F] A,,,/8A,,/8A,,,/8A,,/8A,,,/8A,,/8A,,,/8A,,/8A,,,/8A,,/8A,,,/8A,,/8A,,,/8A,,/8A,,,/8A,,/8!ped-up! | %79
!ped! [G,,C,=E,G,]/C,/4E,/4 [E,G,]/4[E,G,]/4[E,G,]/4[E,G,]/4!ped-up! [F,G,]/4[F,G,]/4[F,G,]/4[F,G,]/4 | %80
!ped! [C,=E,G,C][C,,,C,,]!ped-up! =E,/>[I:staff -1]G,/ | %81
!ped![I:staff +1] =E,/4G,/4C/4G,/4 E,/4G,/4C/4G,/4!ped-up! G,/4=B,/4[I:staff -1]=D/4[I:staff +1]B,/4 | %82
!ped! [C,G,]/4C/4=E/4C/4 G,/4C/4G,/4=E,/4 C,/4G,/4C/4 z/4!ped-up! | %83
!ped! G,/4C/4[I:staff -1]=E/4[I:staff +1]C/4 G,/4C/4[I:staff -1]E/4[I:staff +1]C/4!ped-up!!ped! G,/4=D/4[I:staff -1]F/4[I:staff +1]D/4!ped-up! | %84
!ped! G,/4G/4[I:staff -1]G/4[I:staff +1]G/4 C/4G,/4=E,/4G,/4 C,/4G,/4C/4 z/4!ped-up! | %85
!ped! z/4 =E/4[I:staff -1]G/4[I:staff +1]E/4 C/4G,/4=E,/4G,/4 C,/4G,/4C/4 z/4!ped-up! | %86
 [C,,C,] z z | z3 |!ped! [=E,G,]3 | [=E,G,]3!ped-up! | [=E,G,][I:staff -1] .B,2 | %91
!ped![I:staff +1] [_F,_C]3!ped-up! |!ped! [E,A,_C]3!ped-up! |!p!!ped! [=D,A,_C]3!ped-up! | %94
!ped! [G,B,_F]3!ped-up! |!mf!!ped! [E,A,E]3!ped-up! |!f!!ped! [D,F,A,D]3!ped-up! | %97
!ff!!ped! [E,,B,,E,]/ E,/E/ z/ z!ped-up! | z z!p! .[A,,C,] | .[A,,,A,,].[A,,,A,,] z/ [A,,,A,,]/ | %100
 .[D,,D,].[D,,D,] z/ [D,,D,]/ | .[B,,,B,,].[B,,,B,,] z/ [B,,,B,,]/ | .[C,,C,].[C,,C,] z/ .C,/ | %103
 .[F,,C,][B,,D,] z/ [B,,D,]/ |!p! [E,,B,,][A,,C,] z/ [A,,C,]/ | %105
!pp! [E,,B,,E,][E,,B,,E,][E,,B,,E,] |"^dolce" [A,,E,] z z | %107
!ped! z/ .C,/!ped-up!.C/[K:treble] .[ce]/.[ac']/[K:bass] .[A,C]/ | %108
!ped! z/ .[F,A,]/!ped-up!.[B,D]/[K:treble] .[df]/.[bd']/[K:bass] .[F,D]/ | %109
!ped! z/ .[D,F,]/!ped-up!.[G,D]/[K:treble] .f/.[bd']/[K:bass] .[G,B,]/ | %110
!ped! z/ .[=E,G,]/!ped-up!.[C=E]/[K:treble] .[=eg]/.[gc']/[K:bass] .C/ | %111
!ped! z/ .[F,=A,]/!ped-up!.[F,B,]/[K:treble] .f/.[bd']/[K:bass] .[F,B,]/ | %112
!ped! z/ .[E,G,]/!ped-up!.[E,A,]/[K:treble] .e/.[ac']/[K:bass] .[A,C]/ | %113
!ped! .E,,/.E,/[K:treble] .E/ .e/ .e'/[K:bass] .[E,E]/!ped-up! | %114
!f! [A,C]!f! z/4 E,,/4F,,/4G,,/4{/B,,} A,,/4G,,/4A,,/4B,,/4 | %115
 C,/4B,,/4A,,/4G,,/4 A,,/4B,,/4A,,/4G,,/4 A,,/4B,,/4C,/4A,,/4 | %116
 F,,/4G,,/4F,,/4=E,,/4 F,,/4=A,,/4B,,/4A,,/4 B,,/4C,/4D,/4C,/4 | %117
 D,/4C,/4D,/4C,/4 B,,/4D,/4_A,,/4B,,/4 G,,/4A,,/4F,,/4G,,/4 | %118
 =E,,/4F,,/4G,,/4E,,/4 C,,/4E,,/4G,,/4=B,,/4 C,/4G,,/4C,/4_B,,/4 | %119
 =A,,/4G,,/4A,,/4F,,/4 B,,/4C,/4B,,/4A,,/4 B,,/4C,/4D,/4B,,/4 | %120
 G,,/4F,,/4G,,/4E,,/4 _A,,/4B,,/4A,,/4G,,/4 A,,/4B,,/4C,/4=D,/4 | %121
!ped! [E,,E,]- [E,,E,]/4!mp! [E,,E,]/4[F,,F,]/4!mf![G,,G,]/4 A,,/4!f!B,,/4C,/4=D,/4!ped-up! | %122
!ff!!ped! [E,,E,]-[E,,E,]/[F,,F,]/4[G,,G,]/4[A,,A,]/4[B,,B,]/4[C,C]/4[=D,=D]/4!ped-up! | %123
 !fermata![E,E]2!pp! .[E,,E,] | .[E,,E,] z .[E,,E,] | .[E,,E,] z .[E,,E,] | .[E,,E,] z .[E,,E,] | %127
 .[E,,E,] z E,, | E,, z [E,B,] | [E,G,B,] z E,/G,/ | [E,,E,] z [E,,E,] | [E,,E,] z [E,,E,] | %132
 [E,F,A,=D] z z | z z[K:treble] [Ac]/[FA]/ | [=DF][DF]/[EG]/[FA]/[GB]/ | [Ac][Ac]/[GB]/[FA]/[EG]/ | %136
 [=DF]/!mp![EG]/[FA]/[GB]/[Ac]/[GB]/ |!mp! [FA]/[EG]/!p![=DF]/[B,D]/[CE]/[DF]/ | %138
 [EG]/[FA]/[GB]/[Ac]/[B_d]/[ce]/ | [df][df]/[ce]/[Bd]/[Ac]/ | [GB]!mp![GB]/[Ac]/[Bd]/[ce]/ | %141
 [df]/[ce]/!mf![Bd]/[Ac]/[GB]/[Ac]/ | [Bd]/[ce]/[df]/!f!.[GB]/.[Ac]/.[Bd]/ | %143
 .[ce]/.[FA]/.[GB]/.[Ac]/.[Bd]/[K:bass]!p! .[=E,G,]/ | %144
 .[F,A,]/.[G,B,]/.[A,C]/[K:treble] .[FA]/.[GB]/.[Ac]/ | %145
"^cresc."!ped! [Bd]/!mp![Bd]/[Bd]/[Bd]/[Bd]/[Bd]/!ped-up! | %146
!mf!!ped! [=B=d]/[Bd]/[Bd]/[Bd]/[K:bass]!f! [G,G]/[G,G]/!ped-up! | %147
 [G,G]/G,/G,/G,/!ff!!ped! [C,=E,]/>[C,E,G,]/ | [C,=E,C][C,E,G,C]!ped-up![G,,=B,,=D,G,] | %149
!f!!f!!ped! [C,,=E,,G,,]/8C,/8[C,,E,,G,,]/8C,/8[C,,E,,G,,]/8C,/8[C,,E,,G,,]/8C,/8[C,,E,,G,,]/8C,/8[C,,E,,G,,]/8C,/8[C,,E,,G,,]/8C,/8[C,,E,,G,,]/8C,/8[C,,E,,G,,]/8C,/8[C,,E,,G,,]/8C,/8[C,,E,,G,,]/8C,/8[C,,E,,G,,]/8C,/8 | %150
!8vb(! [C,,,C,,]!8vb)! z!ped-up!!ff! [C,=E,G,C]/>[G,,=B,,=D,G,]/ | %151
!ped! [C,,=E,,G,,C,][C,,E,,C,][C,,=D,,F,,C,]!ped-up! | %152
!f!!ped! [C,,=E,,G,,]/8C,/8[C,,E,,G,,]/8C,/8[C,,E,,G,,]/8C,/8[C,,E,,G,,]/8C,/8[C,,E,,G,,]/8C,/8[C,,E,,G,,]/8C,/8[C,,E,,G,,]/8C,/8[C,,E,,G,,]/8C,/8[C,,E,,G,,]/8C,/8[C,,E,,G,,]/8C,/8[C,,E,,G,,]/8C,/8[C,,E,,G,,]/8C,/8!ped-up! | %153
!fff!!8vb(! [C,,,C,,]!8vb)! z [C,,C,]/>[C,,C,]/ | %154
!f!!ped! [C,,=E,,G,,]/8C,/8[C,,E,,G,,]/8C,/8[C,,E,,G,,]/8C,/8[C,,E,,G,,]/8C,/8!fff!!8vb(! [C,,,C,,]!8vb)! [C,,C,]/>[C,,C,]/!ped-up! | %155
"^diminuendo"!ped!!>(! [C,,=E,,G,,]/8C,/8C,,/8C,/8C,,/8C,/8C,,/8C,/8C,,/8C,/8C,,/8C,/8!8vb(! C,,,/8C,,/8C,,,/8C,,/8C,,,/8C,,/8C,,,/8C,,/8C,,,/8C,,/8C,,,/8C,,/8 | %156
 C,,,/8C,,/8C,,,/8C,,/8C,,,/8C,,/8C,,,/8C,,/8C,,,/8C,,/8C,,,/8C,,/8C,,,/8C,,/8C,,,/8C,,/8C,,,/8C,,/8C,,,/8C,,/8C,,,/8C,,/8C,,,/8C,,/8!>)! | %157
!p! C,,,!ped-up!!8vb)! z C,/>F,/ | .[F,,C,F,] z _E,/>G,/ | .E,, z2 | z3 | z3 | %162
 B,,/4G,,/4E,,/4G,,/4 B,,/4G,,/4E,,/4G,,/4 B,,/4G,,/4E,,/4G,,/4 | B,, z2 |!ped! z3 | %165
 z z!ped-up!!p! .E,/z/4.A,/4 |!ped! _C[I:staff -1]._C/[I:staff +1]z/4.B,/4.A,/!ped-up!z/4.C/4 | %167
!ped! G,2 .A,/!ped-up!z/4.B,/4 |!p!!ped![I:staff -1] _C.C/[I:staff +1]z/4.B,/4.A,/!ped-up!z/4.C/4 | %169
!ped! z z ._C/!ped-up!z/4._D/4 | %170
!ped![I:staff -1] EE/[I:staff +1]z/4.D/4._C/!ped-up!z/4[I:staff -1].E/4 | %171
!ped![I:staff +1] z z .E/!ped-up!z/4._D/4 |!ped! _CC/z/4B,/4A,/!ped-up!!mp!z/4C/4 | %173
"^cresc."!ped! =G,3/2!ped-up!!ped! z/!mf! z!ped-up! |!ped! =G,3/2!ped-up!!ped! z/ z!ped-up! | %175
!ff! .[E,,E,]/!f!.[E,,E,]/ z2 | z z[K:treble] =A/B/ | c/d/e/f/=A/B/ | c/d/ C/D/E/F/ | %179
 =A,/B,/C/D/[K:bass]!pp! [=A,,=A,]/[B,,B,]/ | [C,C]/[D,D]/"^cresc."[E,E]/[F,F]/[E,E]/[D,D]/ | %181
 [C,C]/!mp![B,,B,]/[A,,A,]/[G,,G,]/[F,,F,]/[E,,E,]/ | %182
 [D,,D,]/!mf![C,,C,]/[B,,,B,,]/[A,,,A,,]/[G,,,G,,]/[F,,,F,,]/ | %183
 [E,,,E,,]/!f![D,,D,]/[C,,C,]/[B,,,B,,]/[A,,,A,,]/[G,,,G,,]/ | %184
!ff! [A,,,A,,]/4!f!!ped! [E,A,C]/4[E,A,C]/4[E,A,C]/4[E,A,C]/4[E,A,C]/4[E,A,C]/4[E,A,C]/4[E,A,C]/4[E,A,C]/4[E,A,C]/4[E,A,C]/4!ped-up! | %185
!ped! C/>B,/A,/>C/F,-!ped-up! |!ped! F,D/>C/B,/>D/!ped-up! |!ped! G,/>B,/=E,/>G,/C-!ped-up! | %188
!ped! C!ped-up!!ped! D/>B,/ F!ped-up! |!ped! B,!ped-up!!ped! C/>A,/ E!ped-up! | %190
!ped! [E,G,B,E]3!ped-up! |!ped! [A,,A,]/4!f! A,/4B,/4C/4 z!ped-up!!ff! [A,,C,E,A,]/>[C,C]/ | %192
!ped! [G,B,E]3!ped-up! | %193
!ff!!ped! [C,E,A,C]/4!f! [A,,,A,,]/4[B,,,B,,]/4[C,,C,]/4 [D,,D,]/4[E,,E,]/4[F,,F,]/4[G,,G,]/4!ped-up!!f! [A,,A,]/4[B,,B,]/4[C,C]/4[D,D]/4 | %194
 E3 | [FA]3 | [CE]3 |[K:treble] BBB/>G/ | [A,EA] z/[K:bass] A,/C/[I:staff -1]E/ | %199
!ped![I:staff +1] !arpeggio![F,,F,A,]3!ped-up! |!ped! !arpeggio![C,,C,]3!ped-up! | %201
!ped! x x B,/>!ped-up!G,/ | [A,,A,] z B,/>G,/ | A, z (3B,/A,/G,/ | %204
!pp! .[A,,,A,,]/.[C,E,]/.[A,,,A,,]/"^dolce".[C,E,]/.[A,,,A,,]/.[C,E,]/ | %205
 .[A,,,A,,]/.[C,E,]/.[A,,,A,,]/.[C,E,]/.[A,,,A,,]/.[C,E,]/ | %206
 .[A,,,A,,]/.[D,F,]/.[A,,,A,,]/.[D,F,]/.[A,,,A,,]/.[D,F,]/ | %207
 .[A,,,A,,]/.[D,_F,]/.[A,,,A,,]/.[D,F,]/.[A,,,A,,]/.[D,F,]/ | %208
 .[A,,,A,,]/.[C,E,]/.[A,,,A,,]/.[C,E,]/!p! .E,/.F,/ | ._G,/.F,/.E,/.F,/.G,/.E,/ | %210
 .F,/.E,/.D,/.E,/.F,/.D,/ | ._F,/.E,/.D,/.E,/.F,/.D,/ | %212
!pp!!p! A,,/4!pp![C,E,]/4[C,E,]/4[C,E,]/4!ped! [C,E,]/4[C,E,]/4[C,E,]/4[C,E,]/4"^cresc." [C,E,]/4[C,E,]/4[C,E,]/4[C,E,]/4 | %213
 [C,E,]/4[C,E,]/4!p![C,E,]/4[C,E,]/4 [C,E,A,]/4[C,E,A,]/4!mf![C,E,A,]/4[C,E,A,]/4!ped-up!!ped! [E,,B,,E,]/4[B,,E,G,]/4[B,,E,G,]/4[B,,E,G,]/4!ped-up! | %214
!p!!ped! [A,,C,E,A,]/4!pp![C,E,]/4[C,E,]/4[C,E,]/4 [C,E,]/4[C,E,]/4[C,E,]/4"^cresc."[C,E,]/4 [C,E,]/4[C,E,]/4[C,E,]/4[C,E,]/4 | %215
 [C,E,]/4[C,E,]/4!p![C,E,]/4[C,E,]/4 [C,E,A,]/4[C,E,A,]/4!mf![C,E,A,]/4[C,E,A,]/4!ped-up!!ped! [E,,B,,E,]/4[B,,E,G,]/4[B,,E,G,]/4[B,,E,G,]/4!ped-up! | %216
!p!!ped! [C,E,A,]/4[C,E,]/4[C,E,]/4[C,E,]/4"^cresc."[C,E,]!mf!(3[A,,C,E,]/[C,E,A,]/[E,A,C]/ | %217
 (3[E,,E,]/[A,,A,]/[C,C]/!ped-up![E,G,B,E][K:treble]!f! x | B e2 | [FA]3 | [CE]3 | BBB/>G/ | %222
 [A,EA] z/[K:bass] A,/C/[I:staff -1]E/ |"^cresc."[I:staff +1] A,- A,>A, | E/D/ C3/2 x/ | %225
!f! [B,,E,B,]!ff![C,E,C]3/2!f! [C,,C,]/ |!p! [D,,D,] z z | [E,,E,] z z |!ped! [A,,,A,,]2 E,/A,/ | %229
 [A,C][A,C]/[E,B,]/!ped-up!!ped! [A,,C,A,]/>[A,,E,]/ | [A,,E,]2 [C,A,]/[A,C]/ | %231
 CC/B,/!ped-up!!ped! [A,,E,A,]/>[A,,E,]/ | [A,,E,]3 | [A,,E,]3 | %234
 [A,,E,]2!ped-up!"^cresc." C,,/>!p!E,,/ | A,,2 C,,/>!mp!E,,/ | A,,[C,,C,]/>[E,,E,]/[A,,A,] | %237
 [C,,C,]/>!mf![E,,E,]/[A,,A,] [C,,C,]/>!f![E,,E,]/ | %238
 (3.[A,,A,]/.[C,,C,]/.[E,,E,]/(3.[A,,A,]/.[C,,C,]/.[E,,E,]/(3.[A,,A,]/.[C,,C,]/.[E,,E,]/ | %239
 (3.[A,,A,]/.[C,,C,]/.[E,,E,]/(3.[A,,,A,,]/.[C,,C,]/.[E,,E,]/!ped!(3.[A,,A,]/.[A,,C,E,A,]/.[A,,C,E,A,]/ | %240
 (3[A,,C,E,A,]/[A,,C,E,A,]/[A,,C,E,A,]/(3[E,,A,,C,E,]/[E,,A,,C,E,]/[E,,A,,C,E,]/(3[C,,E,,A,,C,]/[C,,E,,A,,C,]/[C,,E,,A,,C,]/!ped-up! | %241
!ff! [A,,,C,,E,,A,,] z A,/>C/ |!ped! E3!ped-up! | .[A,C] z .[E,G,E] | .[A,CE] z!f! A,/>C/ | %245
!ped! E3!ped-up! | [A,,E,A,] z z |] %247
V:3
 x | x3 | x3 | x3 | x3 | x3 | x3 | x3 | x2[K:treble] x | x3 | x3 | e2!mf!!>(! f/!mp!g/!>)! | %12
 [dd'] [cc']2 | b a2 | [de][de][de] | [ce] z2 | A3 | E2 [CE] | [B,DE][B,DE] [DE] | x3 | x3 | x3 | %22
 x3 | x3 | x3 | x3 | c2 c- | c2 c- | c2 z | x3 | x3 | x3 | x3 | x3 | x3 | x3 | x3 | x3 | x2 G- | %39
 G2 G- | G2 G- | G3 | x3 | x3 | x3 | x3 | x3 | x3 | x3 | x2[K:bass] C, | C,2 z | x3 | x3 | x3 | %54
 x3 | x3 |[K:treble] x3 | A,/ x/ x2 | G3 | A/ z/ z2 | z2 f/g/ | a3 | e3 | [de][de][de] | x3 | A3 | %66
 E2 [CE] | [B,DE][B,DE] [DE] | [CE] z [de] | [ce] z D | x3 | x3 | x3 | x3 | x3 | c2 c- | c2 c- | %77
 [ce]2 x | x3 | x3 | x3 | x3 | x3 | x3 | x3 | x3 | x3 | x2 G- | G2 G- | G2 G- | G3 | x3 | x3 | x3 | %94
 x3 | x3 | x3 | x3 | x2[K:bass] x | C,C, z/ C,/ | x3 | D,D, z/ D,/ | x3 | x3 | x3 |[K:treble] x3 | %106
 x3 | c/4B/4A/4G/4 A/4B/4A/4G/4 A/4B/4c/4A/4 | F/4G/4F/4=E/4 F/4=A/4B/4A/4 B/4c/4d/4c/4 | %109
 d/4c/4d/4c/4 B/4d/4_A/4d/4 G/4d/4F/4d/4 | =E/4c/4G/4c/4 =B/4c/4G/4c/4 _B/4c/4G/4c/4 | %111
 =A/4c/4F/4c/4 B/4d/4F/4d/4 B/4d/4_A/4d/4 | G/4B/4E/4c/4 A/4c/4E/4c/4 A/4c/4E/4c/4 | %113
 [EG]/4e/4[GB]/4e/4 G/4e/4[GB]/4e/4 [EG]/4e/4[GB]/4e/4 | x3 | x3 | x3 | x3 | x3 | x3 | x3 | x3 | %122
 x3 | x3 | x3 | x3 | x3 | x2 [B,D] | [B,D] z [DE] | D z x | CC/B,/A,/C/ | E2 [=DF] | x3 | x3 | x3 | %135
 x3 | x3 | x3 | e2- e/ z/ | x3 | x3 | x3 | x3 | x3 | x3 | x3 | x3 | x3 | x3 | x3 | x3 | x3 | x3 | %153
 x3 | x3 | x3 | z z!mp! C/>=E/ | x3 | x3 | x3 | x3 | x3 | x3 | x3 | x3 | x3 | x3 | x3 | x3 | %169
 _D2 z | x3 | _D2 z | x3 | B,>_CA,/C/ | B,>_CA,/C/ | x3 | x3 | x3 | x3 | x3 | x2[K:bass] x | %181
[K:treble] x3 | x3 | a/4b/4c'/4d'/4 z/4 c/4!f!d/4e/4 f/4g/4a/4b/4 | x3 | x3 | x3 | x3 | x3 | x3 | %190
 z z D/4E/4F/4G/4 | x3 | E/4 =D/4E/4F/4 G/4A/4B/4c/4 _d/4e/4f/4g/4 | x3 | e2!mp! f/g/ | %195
 [dd'] [cc']2 | [Bb] [Aa]2 | [de][de][de] | [ce] x x | A3 | E3 | [B,DE][B,DE][DE] | x3 | x3 | %204
 z/!pp! .A,/z/.A,/z/.A,/ | z/!pp! .A,/z/.A,/z/.A,/ | z/!pp! A,/z/A,/z/A,/ | z/!pp! =G,/z/G,/z/G,/ | %208
 z/!pp! A,/z/A,/ x/ x/ | z/ .[CEA]/z/!pp!.[CEA]/z/.[CEA]/ | z/ .[DFA]/z/!pp!.[DFA]/z/.[DFA]/ | %211
 z/ [B,DG]/ z/!pp! [B,DG]/ z/ [B,DG]/ | x3 | x3 | x3 | x3 | x3 | z [egb]"^Tempo I" z | %218
 z e!mp!f/g/ | [dd'] [cc']2 | [Bb] [Aa]2 | [de][de][de] | [ce] x/ x/ x | A- A>A | x3 | %225
 [EG]E3/2 E/ | x3 | x3 | x3 | x3 | x3 | x3 | x3 | x2 C | C3 | x3 | x3 | x3 | x3 | x3 | x3 | x3 | %242
 [ee']3 | x3 | x3 | [ee']3 | x3 |] %247
V:4
 x | x3 | x3 | x3 | x3 | x3 | x3 | x3 | x3 | x3 | x2[K:treble] x | x3 | x3 | [CE]3 | EEE | %15
 x2[K:bass] x | x3 | x3 | [E,,E,][E,,E,][E,,E,] | [A,,,A,,] z[K:treble] E | x z[K:bass] [E,,E,] | %21
 x3 | x3 | .A,,.A,,.E,, | .A,, z z | .A,,.A,,.A,, | A,, z z | x3 | x3 | x3 | x3 | x3 | C,C,G,, | %33
 C, z x | C,C,C, | C, z x | x3 | x3 | x3 | x3 | x3 | x3 | x3 | x3 | x3 | x3 | x3 | x3 | x3 | x3 | %50
 x3 | x3 | x3 | x3 | x3 | x3 | x3 | x3 | x3 | x[K:treble] x2 | [EGB]3 | [FA]3 | [CE]3 | EEE | %64
 x3/2[K:bass] x3/2 | x3 | x3 | x3 | [A,,E,] z[K:treble] E | x2[K:bass] E, | x3 | x3 | %72
 .A,,.A,,.E,, | A,, z z | A,,A,,A,, | x3 | x3 | x3 | x3 | z G,,G,, | x3 | C,,C,G,, | x x C,/>C,/ | %83
 C,C,C, | C,2 [C,,C,]/>[C,,C,]/ | [C,,C,]2 [C,,C,]/>[C,,C,]/ | x3 | x3 | %88
 z/4 =E,,/4E,,/4E,,/4 E,,/E,,/E,,/ z/ | z/4 =E,,/4E,,/4E,,/4 .E,,/.E,,/.E,,/ z/ | %90
 z/4 =E,,/4E,,/4E,,/4 .E,,/.E,,/.E,,/.E,,/ | z/4 =E,,/4E,,/4E,,/4 .E,,/.E,,/.E,,/.E,,/ | %92
 z/4 _E,,/4E,,/4E,,/4 .E,,/.E,,/.E,,/.E,,/ | z/4!pp!!<(! =D,,/4D,,/4D,,/4 .D,,/.D,,/.D,,/.D,,/ | %94
 z/4!p! _D,,/4D,,/4D,,/4 .D,,/.D,,/.D,,/.D,,/ | z/4!p! C,,/4C,,/4C,,/4 .C,,/.C,,/.C,,/.C,,/ | %96
 z/4!mp! D,,/4D,,/4D,,/4 .D,,/.D,,/.D,,/.D,,/!<)! | x3 | x3 | x3 | x3 | x3 | x3 | x3 | x3 | x3 | %106
 x3 | .A,, z2[K:treble][K:bass] | .D, z2[K:treble][K:bass] | .B,, z2[K:treble][K:bass] | %110
 .C, z2[K:treble][K:bass] | .F,, .B,,/[K:treble] x/ x[K:bass] | .E,, .A,,/[K:treble] x/ x[K:bass] | %113
 x[K:treble] x3/2[K:bass] x/ | x3 | x3 | x3 | x3 | x3 | x3 | x3 | x3 | x3 | x3 | x3 | x3 | x3 | %127
 x3 | x3 | x2 E,, | x3 | x3 | x3 | x2[K:treble] x | x3 | x3 | x3 | x3 | x3 | x3 | x3 | x3 | x3 | %143
 x5/2[K:bass] x/ | x3/2[K:treble] x3/2 | x3 | x2[K:bass] x | x3 | x3 | x3 |!8vb(! x!8vb)! x2 | x3 | %152
 x3 |!8vb(! x!8vb)! x2 | x!8vb(! x!8vb)! x | x3/2!8vb(! x3/2 | x3 | x!8vb)! x2 | x3 | x3 | x3 | %161
 x3 | x3 | x3 | x3 | z z A,,- | A,,A,,A,, | E,E,E, | A,,A,,A,, |{/_G,,} [_G,B,][G,B,]G, | %170
 [_C,_G,]C,C, |{/_G,,} [_G,B,][G,B,][G,B,] | [A,,E,] z z | E,E,/ A,,,/[A,,E,]/[E,A,]/ | %174
 E,!f!E,/ A,,,/[A,,E,]/[E,A,]/ | x3 | x2[K:treble] x | x3 | x3 | x2[K:bass] x | x3 | x3 | x3 | x3 | %184
 x3 | %185
 [D,F,]/4[D,F,]/4[D,F,]/4[D,F,]/4[D,F,]/4[D,F,]/4[D,F,]/4[D,F,]/4D,/4[D,F,]/4[D,F,]/4[D,F,]/4 | %186
 [B,,D,]/4[B,,D,F,]/4[B,,D,F,]/4[B,,D,F,]/4 D,/4D,/4D,/4D,/4 [B,,D,]/4[B,,D,]/4[B,,D,]/4[B,,D,]/4 | %187
 C,/4C,/4C,/4C,/4 C,/4C,/4C,/4C,/4 [C,=E,G,]/4[C,E,G,]/4[C,E,G,]/4[C,E,G,]/4 | %188
 [_E,F,]/4[E,F,]/4[E,F,]/4[E,F,]/4 [D,F,]/4[D,F,]/4[D,F,]/4[D,F,]/4 [B,D]/4[B,D]/4[B,D]/4[B,D]/4 | %189
 [D,E,]/4[D,E,]/4[D,E,]/4[D,E,]/4 [C,E,]/4[C,E,]/4[C,E,]/4[C,E,]/4 [A,C]/4[A,C]/4[A,C]/4[A,C]/4 | %190
 z/4!f! [=D,,=D,]/4[E,,E,]/4[F,,F,]/4 [G,,G,]/4[A,,A,]/4[B,,B,]/4[C,C]/4 _D,/4E,/4F,/4G,/4 | x3 | %192
 E,/4!f! B,/4G,/4B,/4 G,/4B,/4G,/4B,/4 G,/4B,/4G,/4B,/4 | x3 | E, z z | x3 | x3 |[K:treble] EEE | %198
 x3/2[K:bass] x3/2 | x3 | x3 | [E,,E,][E,,E,][E,,E,] | x z E, | A,, z [E,,E,] | x3 | x3 | x3 | x3 | %208
 x2 A,,/ z/ | A,,/ z/ A,,/ z/ A,,/ z/ | A,,/ z/ A,,/ z/ .A,,/ z/ | A,,/ z/ A,,/ z/ A,,/ z/ | %212
 A,, z z | x3 | A,, x x | x3 | A,,A,, x | x2[K:treble] G- | G2 z | x3 | x3 | EEE | %222
 x3/2[K:bass] x3/2 | [F,,F,]3 | !arpeggio![D,,D,][A,,C]3/2 [A,,A,]/ | x3 | x3 | x3 | x3 | x3 | x3 | %231
 x3 | x3 | x3 | x3 | x3 | x3 | x3 | x3 | x3 | x3 | x3 | [E,B,] z z | x3 | x3 | [E,G,B,] z z | x3 |] %247
V:5
 x | x3 | x3 | x3 | x3 | x3 | x3 | x3 | x2[K:treble] x | x3 | x3 | x3 | x3 | x3 | x3 | x3 | x3 | %17
 x3 | x3 | x3 | x3 | x3 | x3 | x3 | x3 | x3 | x3 | x3 | x3 | x3 | x3 | x3 | x3 | x3 | x3 | x3 | %36
 x3 | x3 | x3 | x3 | x3 | x3 | x3 | x3 | x3 | x3 | x3 | x3 | x3 | x2[K:bass] x | x3 | x3 | x3 | %53
 x3 | x3 | x3 |[K:treble] x3 | x3 | x3 | x3 | x3 | x3 | x3 | x3 | x3 | x3 | x3 | x2 B,/>G,/ | x3 | %69
 x3 | x3 | x3 | x3 | x3 | x3 | x3 | x3 | x3 | x3 | x3 | x3 | x3 | x3 | x3 | x3 | x3 | x3 | x3 | %88
 x3 | x3 | x3 | x3 | x3 | x3 | x3 | x3 | x3 | x3 | x2[K:bass] x | x3 | x3 | x3 | x3 | x3 | x3 | %105
[K:treble] x3 | x3 | x3 | x3 | x3 | x3 | x3 | x3 | x3 | x3 | x3 | x3 | x3 | x3 | x3 | x3 | x3 | %122
 x3 | x3 | x3 | x3 | x3 | x3 | x3 | x3 | x3 | x3 | x3 | x3 | x3 | x3 | x3 | x3 | x3 | x3 | x3 | %141
 x3 | x3 | x3 | x3 | x3 | x3 | x3 | x3 | x3 | x3 | x3 | x3 | x3 | x3 | x3 | x3 | x3 | x3 | x3 | %160
 x3 | x3 | x3 | x3 | x3 | x3 | x3 | x3 | x3 | x3 | x3 | x3 | x3 | x3 | x3 | x3 | x3 | x3 | x3 | %179
 x3 | x2[K:bass] x |[K:treble] x3 | x3 | x3 | x3 | x3 | x3 | x3 | x3 | x3 | x3 | x3 | x3 | x3 | %194
 x3 | x3 | x3 | x3 | x3 | x3 | x3 | x3 | x3 | x3 | x3 | x3 | x3 | x3 | x3 | x3 | x3 | x3 | x3 | %213
 x3 | x3 | x3 | x3 | x3 | x3 | x3 | x3 | x3 | x3 | x3 | x3 | x3 | x3 | x3 | x3 | x3 | x3 | x3 | %232
 x3 | x3 | x3 | x3 | x3 | x3 | x3 | x3 | x3 | x3 | x3 | x3 | x3 | x3 | x3 |] %247

